X:243
T: ES WOLLT EIN MAEDCHEN FRUEH AUFSTEHN
N: E0121B
O: Europa, Mitteleuropa, Deutschland, Schleswig
R: erzaehlendes Volks - Lied, Schalk -, Schelmen - Lied, Liebe
M: 2/4
L: 1/16
K: F
C2 | F2F2E2D2 | D2C2C2
C2 | D2D2E2GG | F4z2
C2 | C2F2A2c2 | c2B2G2z2
CCE2GGB2 | B2A2F2
A2 | A2G2D2E2 | F4z2

